contributed-vectors/g_two_a.svg

<svg xmlns="http://www.w3.org/2000/svg" xml:space="preserve" style="fill-rule:evenodd;clip-rule:evenodd;stroke-linejoin:round;stroke-miterlimit:2" viewBox="0 0 192 192"><path d="M164.5 21.5c0-5.519-4.481-10-10-10h-133c-5.519 0-10 4.481-10 10v133c0 5.519 4.481 10 10 10h133c5.519 0 10-4.481 10-10v-133Z" style="fill:#f8c18c" transform="translate(8 8)"/><path d="M50.357 85.882v.063c-5.099.518-9.085 4.83-9.085 10.066 0 5.235 3.986 9.547 9.085 10.065v.052h13.405v-6.255H48.848v-7.746h23.434v21.746H50.978c-.206.008-.413.011-.621.011-9.864 0-17.873-8.009-17.873-17.873 0-9.865 8.009-17.874 17.873-17.874h21.925v7.745H50.357ZM78.092 99.827a7.7 7.7 0 0 1 7.7-7.7h22.097v-6.245H78.092v-.001a7.743 7.743 0 0 1 7.744-7.744h22.829a7.745 7.745 0 0 1 7.744 7.744v6.292a7.698 7.698 0 0 1-7.7 7.7H86.612v6.255h24.695l-4.032 7.745H78.092V99.827Zm38.317 14.046h-.089l.089-.171v.171Z" style="fill:#fff" transform="matrix(.79146 0 0 .79146 20 20.042)"/><path d="m142.983 99.873-6.792-13.048-14.185 27.249h-9.045l17.616-33.839a3.897 3.897 0 0 1 3.456-2.098h4.316c1.453 0 2.786.809 3.457 2.098l17.511 33.638-.385.201h-8.556l-4.157-7.985H135.89l-3.236-6.216h10.329Z" style="fill:#fff" transform="matrix(.79146 0 0 .79146 20 20.042)"/></svg>

<?xml version="1.0" encoding="UTF-8" standalone="no"?>
<!DOCTYPE svg PUBLIC "-//W3C//DTD SVG 1.1//EN" "http://www.w3.org/Graphics/SVG/1.1/DTD/svg11.dtd">
<svg width="100%" height="100%" viewBox="0 0 192 192" version="1.1" xmlns="http://www.w3.org/2000/svg" xmlns:xlink="http://www.w3.org/1999/xlink" xml:space="preserve" xmlns:serif="http://www.serif.com/" style="fill-rule:evenodd;clip-rule:evenodd;stroke-linejoin:round;stroke-miterlimit:2;">
    <g id="Layer1">
        <g transform="matrix(1,0,0,1,8,8)">
            <path d="M164.5,21.5C164.5,15.981 160.019,11.5 154.5,11.5L21.5,11.5C15.981,11.5 11.5,15.981 11.5,21.5L11.5,154.5C11.5,160.019 15.981,164.5 21.5,164.5L154.5,164.5C160.019,164.5 164.5,160.019 164.5,154.5L164.5,21.5Z" style="fill:rgb(248,193,140);"/>
        </g>
        <g transform="matrix(0.791456,0,0,0.791456,19.9995,20.0422)">
            <path d="M50.357,85.882L50.357,85.945C45.258,86.463 41.272,90.775 41.272,96.011C41.272,101.246 45.258,105.558 50.357,106.076L50.357,106.128L63.762,106.128L63.762,99.873L48.848,99.873L48.848,92.127L72.282,92.127L72.282,113.873L50.978,113.873C50.772,113.881 50.565,113.884 50.357,113.884C40.493,113.884 32.484,105.875 32.484,96.011C32.484,86.146 40.493,78.137 50.357,78.137C50.357,78.137 72.282,78.137 72.282,78.137L72.282,85.882L50.357,85.882Z" style="fill:white;"/>
            <path d="M78.092,99.827C78.092,97.785 78.904,95.827 80.348,94.383C81.792,92.939 83.75,92.127 85.792,92.127L107.889,92.127L107.889,85.882L78.092,85.882C78.092,85.882 78.092,85.882 78.092,85.881C78.092,83.827 78.908,81.858 80.361,80.405C81.813,78.953 83.783,78.137 85.836,78.137C92.484,78.137 102.017,78.137 108.665,78.137C110.719,78.137 112.689,78.953 114.141,80.405C115.593,81.858 116.409,83.827 116.409,85.881L116.409,92.173C116.409,94.215 115.598,96.173 114.154,97.617C112.71,99.061 110.751,99.873 108.709,99.873L86.612,99.873L86.612,106.128L111.307,106.128L107.275,113.873L78.092,113.873L78.092,99.827ZM116.409,113.873L116.32,113.873L116.409,113.702L116.409,113.873Z" style="fill:white;"/>
            <path d="M142.983,99.873L136.191,86.825L122.006,114.074L112.961,114.074C112.961,114.074 126.577,87.918 130.577,80.235C131.248,78.946 132.58,78.137 134.033,78.137C135.363,78.137 137.019,78.137 138.349,78.137C139.802,78.137 141.135,78.946 141.806,80.235C145.79,87.889 159.317,113.873 159.317,113.873L158.932,114.074L150.376,114.074L146.219,106.089L135.89,106.089L132.654,99.873L142.983,99.873Z" style="fill:white;"/>
        </g>
    </g>
</svg>
